X:1
T:Title
T:Johann Strauss Jr.
T:An Der Schönen Blauen Donau
T:On The Beautiful Blue Danube
T:Arrangement for Piano (Lower Intermidiate) 
C:Composer
%%score { 1 | 2 }
L:1/8
Q:1/4=102
M:3/4
K:C
V:1 treble nm="Piano" snm="Pno."
V:2 bass 
V:1
!mp!"^Moderato" (C2 E2 G2) | G2 z2 ([eg]2 | [eg]2) z2 ([ce]2 | [ce]2) z2 C2 | (C2 E2 G2) | %5
 G2 z2 ([fg]2 | [fg]2) z2 ([Bf]2 | [Bf]2) z2 B,2 | (B,2 D2 A2) | A2 z2 ([fa]2 | [fa]2) z2 ([Bf]2 | %11
 [Bf]2) z2 B,2 | (B,2 D2 A2) | A2 z2 ([ea]2 | [ea]2) z2 ([ce]2 | [ce]2) z2 C2 | (C2 E2 G2) | %17
 c2 z2 ([gc']2 | [gc']2) z2 ([eg]2 | [eg]2) z2 C2 | (C2 E2 G2) | c2 z2 ([ac']2 | %22
 [ac']2) z2 ([fa]2 | [fa]2) z2!mf! D2 | (D2 F2 A2) | A6- | A2 (^F2 G2 | e6-) | e2 (c2 E2) | %29
 (E4 D2) | (A4 G2) | .C2 z .C .C z |] z6 | z6 | z6 | z6 | z6 | z6 | z6 | z6 | z6 | z6 | z6 |] %43
V:2
 z6 | C,2 [E,G,]2 [E,G,]2 | C,2 [E,G,]2 [E,G,]2 | C,2 [E,G,]2 [E,G,]2 | C,2 [E,G,]2 [E,G,]2 | %5
 D,2 [F,G,]2 [F,G,]2 | D,2 [F,G,]2 [F,G,]2 | D,2 [F,G,]2 [F,G,]2 | D,2 [F,G,]2 [F,G,]2 | %9
 G,,2 [F,G,]2 [F,G,]2 | G,,2 [F,G,]2 [F,G,]2 | D,2 [F,G,]2 [F,G,]2 | G,,2 [F,G,]2 [F,G,]2 | %13
 C,2 [E,G,]2 [E,G,]2 | C,2 [E,G,]2 [E,G,]2 | C,2 [E,G,]2 [E,G,]2 | C,2 [E,G,]2 [E,G,]2 | %17
 E,2 [G,C]2 [G,C]2 | E,2 [G,C]2 [G,C]2 | E,2 [G,C]2 [G,C]2 | E,2 [G,C]2 [G,C]2 | F,2 [CD]2 [CD]2 | %22
 F,2 [CD]2 [CD]2 | F,2 z2 D,2 | D,2 F,2 A,2 | D,2 [F,G,]2 [F,G,]2 | G,,2 [F,G,]2 [F,G,]2 | %27
 C,2 [E,G,]2 [E,G,]2 | C,2 [E,G,]2 [E,G,]2 | [F,A,]4 z2 | [G,B,]4 z2 | .[C,E,]2 z2 .[C,E,] z |] %32
 z6 | z6 | z6 | z6 | z6 | z6 | z6 | z6 | z6 | z6 | z6 |] %43

